Numix-Light/scalable/actions/document-print-preview-symbolic.svg

<?xml version="1.0" encoding="UTF-8" standalone="no"?>
<svg
   xmlns:dc="http://purl.org/dc/elements/1.1/"
   xmlns:cc="http://creativecommons.org/ns#"
   xmlns:rdf="http://www.w3.org/1999/02/22-rdf-syntax-ns#"
   xmlns:svg="http://www.w3.org/2000/svg"
   xmlns="http://www.w3.org/2000/svg"
   xmlns:sodipodi="http://sodipodi.sourceforge.net/DTD/sodipodi-0.dtd"
   xmlns:inkscape="http://www.inkscape.org/namespaces/inkscape"
   width="16"
   viewBox="0 0 16 16"
   height="16"
   id="svg4101"
   version="1.1"
   inkscape:version="0.91 r"
   sodipodi:docname="document-print-preview-symbolic.svg">
  <metadata
     id="metadata4111">
    <rdf:RDF>
      <cc:Work
         rdf:about="">
        <dc:format>image/svg+xml</dc:format>
        <dc:type
           rdf:resource="http://purl.org/dc/dcmitype/StillImage" />
        <dc:title />
      </cc:Work>
    </rdf:RDF>
  </metadata>
  <defs
     id="defs4109" />
  <sodipodi:namedview
     pagecolor="#ffffff"
     bordercolor="#666666"
     borderopacity="1"
     objecttolerance="10"
     gridtolerance="10"
     guidetolerance="10"
     inkscape:pageopacity="0"
     inkscape:pageshadow="2"
     inkscape:window-width="929"
     inkscape:window-height="480"
     id="namedview4107"
     showgrid="false"
     inkscape:zoom="14.75"
     inkscape:cx="8"
     inkscape:cy="8"
     inkscape:window-x="10"
     inkscape:window-y="34"
     inkscape:window-maximized="0"
     inkscape:current-layer="svg4101" />
  <g
     transform="matrix(.08 0 0 .08 -2.24 14.4)"
     fill="#353535"
     id="g4103">
    <path
       d="M 2.5996094,0 C 1.9996026,0 2,0.59960938 2,0.59960938 L 2,6 1,6 C 0,6 -0.00146496,6.7057 0,7 l 0,6 c 0,0 0,1 1,1 l 1,0 0,1 c 0,0 -3.974e-4,1 0.5996094,1 l 10.8007816,0 c 0.143254,0 0.249016,-0.05969 0.332031,-0.146484 L 13.123047,15.246094 C 12.073694,15.651347 10.877215,15.566443 9.8886719,15 L 3,15 3,12 8.0410156,12 c -0.02122,-0.335061 -0.010731,-0.670124 0.056641,-1 L 1,11 1,7 15,7 15,9.8886719 c 0.566443,0.9885431 0.651347,2.1850221 0.246094,3.2343751 l 0.529297,0.529297 C 15.995691,13.363419 16,13 16,13 L 16,7 C 16,7 16,6 15,6 L 14,6 14,1 13,0 Z M 3,1 l 7,0 0,3 3,0 0,2 -10,0 z"
       transform="matrix(12.5,0,0,12.5,28,-180)"
       id="path4105"
       inkscape:connector-curvature="0"
       sodipodi:nodetypes="sccsccsccsscccccccccccccccscccsccccccc" />
  </g>
  <g
     style="enable-background:new"
     id="g4146"
     transform="matrix(0.49999887,0,0,0.49999887,8.5131982,8.5132456)">
    <path
       inkscape:connector-curvature="0"
       id="path4163"
       d="m 2.6046942,2.6046942 c -2.13950824,2.1395081 -2.13950824,5.6386664 0,7.7781748 2.1395079,2.139508 5.6386665,2.139508 7.7781748,0 2.139508,-2.1395083 2.139508,-5.6386669 0,-7.7781748 -2.1395084,-2.13950824 -5.6386667,-2.13950824 -7.7781748,0 z m 1.4142135,1.4142135 c 1.3752105,-1.3752105 3.574537,-1.3752105 4.9497475,0 1.3752108,1.3752104 1.3752108,3.5745372 10e-8,4.9497476 -1.3752104,1.3752107 -3.5745372,1.3752107 -4.9497476,-10e-8 -1.3752105,-1.3752105 -1.3752105,-3.574537 0,-4.9497475 z"
       style="color:#000000;font-style:normal;font-variant:normal;font-weight:normal;font-stretch:normal;font-size:medium;line-height:normal;font-family:sans-serif;text-indent:0;text-align:start;text-decoration:none;text-decoration-line:none;text-decoration-style:solid;text-decoration-color:#000000;letter-spacing:normal;word-spacing:normal;text-transform:none;direction:ltr;block-progression:tb;writing-mode:lr-tb;baseline-shift:baseline;text-anchor:start;white-space:normal;clip-rule:nonzero;display:inline;overflow:visible;visibility:visible;opacity:1;isolation:auto;mix-blend-mode:normal;color-interpolation:sRGB;color-interpolation-filters:linearRGB;solid-color:#000000;solid-opacity:1;fill:#353535;fill-opacity:1;fill-rule:nonzero;stroke:none;stroke-width:2;stroke-linecap:square;stroke-linejoin:miter;stroke-miterlimit:4;stroke-dasharray:none;stroke-dashoffset:0;stroke-opacity:1;color-rendering:auto;image-rendering:auto;shape-rendering:auto;text-rendering:auto;enable-background:accumulate" />
    <rect
       transform="matrix(0.70710678,-0.70710678,0.70710678,0.70710678,0,0)"
       ry="1.0040022"
       rx="0.77000171"
       y="13.683435"
       x="-0.999933"
       height="7"
       width="2"
       id="rect4165"
       style="opacity:1;fill:#353535;fill-opacity:1;fill-rule:nonzero;stroke:none;stroke-width:2;stroke-linecap:square;stroke-linejoin:miter;stroke-miterlimit:4;stroke-dasharray:none;stroke-dashoffset:0;stroke-opacity:1" />
  </g>
  <g
     transform="matrix(0.49999887,0,0,0.49999887,8.5131982,8.5132456)"
     id="g4150"
     style="enable-background:new;stroke:#000000;stroke-opacity:1;stroke-width:4.00000904;stroke-miterlimit:4;stroke-dasharray:none" />
</svg>

<svg xmlns="http://www.w3.org/2000/svg" viewBox="0 0 16 16">
 <g transform="matrix(.08 0 0 .08 -2.24 14.4)" style="fill:#353535">
  <path d="m 2.6 0 c -0.6 0 -0.6 0.6 -0.6 0.6 l 0 5.4 -1 0 c -1 0 -1 0.706 -1 1 l 0 6 c 0 0 0 1 1 1 l 1 0 0 1 c 0 0 0 1 0.6 1 l 10.801 0 c 0.143 0 0.249 -0.06 0.332 -0.146 l -0.609 -0.607 c -1.049 0.405 -2.246 0.32 -3.234 -0.246 l -6.889 0 0 -3 5.04 0 c -0.021 -0.335 -0.011 -0.67 0.057 -1 l -7.098 0 0 -4 14 0 0 2.889 c 0.566 0.989 0.651 2.185 0.246 3.234 l 0.529 0.529 c 0.22 -0.289 0.225 -0.652 0.225 -0.652 l 0 -6 c 0 0 0 -1 -1 -1 l -1 0 0 -5 -1 -1 m -10 1 l 7 0 0 3 3 0 0 2 -10 0 z" transform="matrix(12.5,0,0,12.5,28,-180)"/>
 </g>
 <g transform="matrix(0.49999887,0,0,0.49999887,8.5131982,8.5132456)" style="enable-background:new">
  <path d="m 2.605 2.605 c -2.14 2.14 -2.14 5.639 0 7.778 2.14 2.14 5.639 2.14 7.778 0 2.14 -2.14 2.14 -5.639 0 -7.778 -2.14 -2.14 -5.639 -2.14 -7.778 0 z m 1.414 1.414 c 1.375 -1.375 3.575 -1.375 4.95 0 1.375 1.375 1.375 3.575 0 4.95 -1.375 1.375 -3.575 1.375 -4.95 0 -1.375 -1.375 -1.375 -3.575 0 -4.95 z" mix-blend-mode="normal" isolation="auto" white-space="normal" solid-opacity="1" solid-color="#000000" style="visibility:visible;shape-rendering:auto;color-interpolation-filters:linearRGB;fill:#353535;opacity:1;image-rendering:auto;fill-opacity:1;stroke:none;display:inline;color:#000;fill-rule:nonzero;color-rendering:auto;color-interpolation:sRGB"/>
  <rect transform="matrix(0.70710678,-0.70710678,0.70710678,0.70710678,0,0)" ry="1" rx="0.77" y="13.683" x="-1" height="7" width="2" style="fill:#353535;opacity:1;fill-opacity:1;stroke:none;fill-rule:nonzero"/>
 </g>
</svg>
